X:65
T: Száraz dió rotyogtató...
K: C
M: 2/4
L: 1/4
g g | ^f g | a g | ^f d | 
d/e/f/f/ | e/f/ g |  d2 | 
c c | B c | d c | B G | 
G/A/_B/_B/ | A/_B/ c | G2 | 

